!!!ONB: MCCC : IFC0059_01 : Extracted Monophonic Melody
!!!COM: Chopin, Frédéric
!!!OPR: Mazurkas
!!!OMV: 1
!!!SCT: Op.68 (Posthumous)
!!!ODT: 1826///
**kern
*thru
*staff1
*clefG2
*k[f#]
*G:
*M3/4
*MM160
=1
4d
4d
4d
=2
8e
16r
16d
4c#
4d
=3
8e
16r
16d
4c#
4d
=4
8e
16r
16d
4c#
4d
=5
4d
8b
8a
8b
8cc
=6
8dd
8cc#
4dd
4gg
=7
4d
8cc
8b
8cc
8ee
=8
12ee
12ff#
12ee
4.dd
8b
=9
4d
8b
8a
8b
8cc
=10
8dd
8cc#
4dd
4bb
=11
4a
8cc
8b
8cc
8ee
=12
12ee
12ff#
12ee
4.dd
8b
=13
4.a
8g
8f#
8e
=14
8f#
8d
4g
4b
=15
8cc
16r
16ee
12gg
12aa
12gg
8ff#
8ee
=16
8bb
16r
16aa
8gg
16r
16ee
8dd
16r
16b
=17
4.a
8g
8f#
8e
=18
8f#
8d
4g
4b
=19
8a
16r
16cc
12ee
12ff#
12ee
8dd
8cc
=20
8b
16r
16a
8g
16r
16e
8d
16r
16B
=21
4.a
8g
8f#
8e
=22
8f#
8d
4g
4b
=23
8cc
16r
16ee
12gg
12aa
12gg
8ff#
8ee
=24
8bb
16r
16aa
8gg
16r
16ee
8dd
16r
16b
=25
4.a
8g
8f#
8e
=26
8f#
8d
4g
4b
=27
8a
16r
16cc
12ee
12ff#
12ee
8dd
8cc
=28
8b
16r
16a
8g
16r
16e
8d
16r
16B
=29
*k[]
4G
2gg
=30
8.ee
16dd#
4ee
4ff
=31
8.dd
16cc#
4dd
4ee
=32
8.cc
16b
4cc
4a
=33
4g
2gg
=34
8ee
8dd#
4ee
4ff
=35
8dd
8cc#
4dd
4ee
=36
8cc
8b
4cc
4a
=37
4g
2gg
=38
8ee
16r
16dd#
4ee
4ff
=39
8dd
16r
16cc#
4dd
4ee
=40
8cc
16r
16b
4cc
4a
=41
4g
2gg
=42
8ee
8dd
4ee
4ff
=43
8dd
8cc#
4dd
4ee
=44
8cc
8b
4cc
4dd
=45
*k[f#]
4d
8b
8a
8b
8cc
=46
8dd
8cc#
4dd
4gg
=47
4d
8cc
8b
8cc
8ee
=48
12ee
12ff#
12ee
4.dd
8b
=49
4d
8b
8a
8b
8cc
=50
8dd
8cc#
4dd
4bb:
=51
4a
8cc
8b
8cc
8ee
=52
12ee
12ff#
12ee
4.dd
8b
=53
4.a
8g
8f#
8e
=54
8f#
8d
4g
4b
=55
8cc
16r
16ee
12gg
12aa
12gg
8ff#
8ee
=56
8bb
16r
16aa
8gg
16r
16ee
8dd
16r
16b
=57
4.a
8g
8f#
8e
=58
8f#
8d
4g
4b
=59
8a
16r
16cc
12ee
12ff#
12ee
8.dd
16f#
=60
4g
4ggg
4r
==
*-
